X:5003
T:Fandangu (CT 331)
R:Fandangu
C:Tradicional
S:Música Tradicional Asturiana, (C) Tello & Tito. Asturies, 2001.
S:http://pagina.de/MusTradAst <telloytito@asturies.org>
N:Baile de gaita (Fandangu), transcrito en Uviéu.
O:Uviéu
A:Asturies
Z:Cancioneru de Torner 331
M:3/8
L:1/8
Q:3/8=72
K:G
d3|:B B/A/B/G/|A/G/F/G/F/G/|B A/B/c/G/|A/G/GG|
B B/A/B/G/|A/G/F/G/F/G/|B A/B/c/G/|A/G/GG|
B A/B/c/G/|A/G/GG|B A/B/c/G/|A/G/GG|
B A/B/c/G/|A/G/FF|B A/B/c/G/|A/G/GG|
g/f/e/f/g/a/|g2 d|f e/f/g/e/|edd|
g/f/e/f/g/a/|g2 d|e d/c/B/A/|AGc/d/|
e2 e|c/B/ A B/c/|d2 d|B/A/ G c/d/|
e2 e|c/B/ A B/c/|d2 d|B/A/ GG:|d3||

